public/images/poses-lg/Cat.svg

<svg width="800" height="800" fill="none" xmlns="http://www.w3.org/2000/svg"><g clip-path="url(#a)"><path d="M539.918 478.169c-24.547-7.321-50.708-5.94-75.583-1.072-45.856 8.97-109.142 29.558-130.457 76.066-10.824 23.612-12.693 50.714-11.93 76.34.669 22.586 5.902 80.67 9.303 98.673.26 1.382-.827 2.638-2.23 2.54-8.805-.642-34.178 2.491-37.43 2.918-13.338 1.755-26.51 4.566-39.536 7.896-32.727 8.36-67.892 28.818-101.253 13.592-8.16-3.724-16.762 1.625-23.843 5.241-25.076 12.799-70.43 2.068-84.496 31.807-.669 1.419.362 3.065 1.928 3.071 21.804.124 73.868 1.18 106.162-5.979.206-.047.404-.063.616-.042 61.676 5.32 170.895 17.702 227.518-7.796a2.215 2.215 0 0 0 1.067-1.03c14.82-29.424 21.542-62.067 25.1-94.602 2.694-24.63 2.664-49.484 5.299-74.084 2.405-22.463 12.578-45.116 35.334-53.159 12.832-4.536 26.248-7.602 38.523-6.355 11.298 1.144 17.079 10.69 26.135 13.997 7.493 2.736 13.965 3.173 20.535 2.077 13.565-2.27 23.352-4.792 36.494-3.214 2.128.256 3.008 2.73 4.465 2.696 16.645-.364 14.144 3.34 24.498-26.526 11.062-31.92-31.573-55.705-56.219-63.055Z" fill="#fff" stroke="#000" stroke-width="5" stroke-miterlimit="10"/><path d="M539.918 478.169c-24.547-7.321-50.708-5.94-75.583-1.072-45.856 8.97-109.142 29.558-130.457 76.066-10.824 23.612-12.693 50.714-11.93 76.34.669 22.586 5.902 80.67 9.303 98.673.26 1.382-.827 2.638-2.23 2.54-8.805-.642-34.178 2.491-37.43 2.918-13.338 1.755-26.51 4.566-39.536 7.896-32.727 8.36-67.892 28.818-101.253 13.592-8.16-3.724-16.762 1.625-23.843 5.241-25.076 12.799-70.43 2.068-84.496 31.807-.669 1.419.362 3.065 1.928 3.071 21.804.124 73.868 1.18 106.162-5.979.206-.047.404-.063.616-.042 61.676 5.32 170.895 17.702 227.518-7.796a2.215 2.215 0 0 0 1.067-1.03c14.82-29.424 21.542-62.067 25.1-94.602 2.694-24.63 2.664-49.484 5.299-74.084 2.405-22.463 12.578-45.116 35.334-53.159 12.832-4.536 26.248-7.602 38.523-6.355 11.298 1.144 17.079 10.69 26.135 13.997 7.493 2.736 13.965 3.173 20.535 2.077 13.565-2.27 23.352-4.792 36.494-3.214 2.128.256 3.008 2.73 4.465 2.696 16.645-.364 14.144 3.34 24.498-26.526 11.062-31.92-31.573-55.705-56.219-63.055Z" stroke="#000" stroke-width="5" stroke-miterlimit="10"/><path d="M629.235 552.061c-22.51 6.308-32.321-22.873-32.321-22.873l-18.958 12.31-.143 27.665s13.936-.754 18.386 6.383" fill="#fff"/><path d="M629.235 552.061c-22.51 6.308-32.321-22.873-32.321-22.873l-18.958 12.31-.143 27.665s13.936-.754 18.386 6.383" stroke="#000" stroke-width="5" stroke-miterlimit="10"/><path d="M629.235 552.061c-22.51 6.308-32.321-22.873-32.321-22.873l-18.958 12.31-.143 27.665s13.936-.754 18.386 6.383M360.687 519.604s21.924 45.524 62.274 55.941M213.913 753.678s-4.35 27.593 0 40.82" stroke="#000" stroke-width="5" stroke-miterlimit="10"/><path d="M634.705 553.151c9.853 2.211 13.457 11.12 22.735 17.227 14.728 9.702 13.221 36.952-.819 50.784-18.538 18.259-88.222-43.071-79.31-55.302 5.279-7.239 21.754-14.243 40.652-13.075 6.076.373 16.742.366 16.742.366Z" fill="#fff" stroke="#000" stroke-width="5" stroke-miterlimit="10"/><path d="M634.705 553.151c9.853 2.211 13.457 11.12 22.735 17.227 14.728 9.702 13.221 36.952-.819 50.784-18.538 18.259-88.222-43.071-79.31-55.302 5.279-7.239 21.754-14.243 40.652-13.075 6.076.373 16.742.366 16.742.366Z" stroke="#000" stroke-width="5" stroke-miterlimit="10"/><path d="M641.294 621.952c-11.847-11.178-25.645-39.832-7.953-51.385 19.883-12.992 3.402-15.276-1.015-16.843-4.419-1.573-17.98 1.213-17.357-1.312.629-2.524 30.627-18.122 50.124-4.669 19.499 13.457 24.72 25.902 21.902 39.781-2.823 13.88-18.886 33.447-32.607 37.407-13.716 3.96-13.094-2.979-13.094-2.979Z" fill="#000" stroke="#000" stroke-width="5" stroke-miterlimit="10"/><path d="M679.316 586.635c5.927-9.555 26.379-27.326 39.141.183 10.481 22.596 17.635 14.351 33.506 27.901 12.757 10.89 4.971 33.607-29.087 38.055-30.998 4.048-28.057-15.02-29.291-35.486-1.231-20.455-14.269-30.653-14.269-30.653Z" fill="#000" stroke="#000" stroke-width="5" stroke-miterlimit="10"/><path d="M541.187 578.531s15.765 71.674 17.01 106.315c1.66 46.089 9.302 81.865 14.407 101.514 1.28 4.937 5.956 5.806 10.559 7.227 3.66 1.134 6.722 1.333 8.793 1.358l68.151.265c1.155.014 1.56-1.531.543-2.074-9.228-4.923-26.561-8.076-33.871-10.798-5.809-2.166-10.554-3.549-16.675-4.552-1.417-.235-4.099-.612-5.527-.684l-.053-.005c-4.559-.246-9.819-3.868-11.655-8.047-2.462-5.623-1.302-9.066-1.223-15.195.102-7.172.193-14.35.288-21.525.195-14.682.392-29.366.586-44.046.054-3.96.104-7.921.158-11.881l-8.096-146.665c-3.524-14.906-15.246-21.224-26.198-19.544-10.953 1.688-39.717 3.585-31.254 37.841 6.666 26.986 14.057 30.496 14.057 30.496Z" fill="#fff" stroke="#000" stroke-width="5" stroke-miterlimit="10"/><path d="M541.187 578.531s15.765 71.674 17.01 106.315c1.66 46.089 9.302 81.865 14.407 101.514 1.28 4.937 5.956 5.806 10.559 7.227 3.66 1.134 6.722 1.333 8.793 1.358l68.151.265c1.155.014 1.56-1.531.543-2.074-9.228-4.923-26.561-8.076-33.871-10.798-5.809-2.166-10.554-3.549-16.675-4.552-1.417-.235-4.099-.612-5.527-.684l-.053-.005c-4.559-.246-9.819-3.868-11.655-8.047-2.462-5.623-1.302-9.066-1.223-15.195.102-7.172.193-14.35.288-21.525.195-14.682.392-29.366.586-44.046.054-3.96.104-7.921.158-11.881l-8.096-146.665c-3.524-14.906-15.246-21.224-26.198-19.544-10.953 1.688-39.717 3.585-31.254 37.841 6.666 26.986 14.057 30.496 14.057 30.496Z" stroke="#000" stroke-width="5" stroke-miterlimit="10"/></g><defs><clipPath id="a"><path fill="#fff" d="M0 0h800v800H0z"/></clipPath></defs></svg>

<svg width="800" height="800" viewBox="0 0 800 800" fill="none" xmlns="http://www.w3.org/2000/svg">
<g clip-path="url(#clip0_298_12123)">
<path d="M539.918 478.169C515.371 470.848 489.21 472.229 464.335 477.097C418.479 486.067 355.193 506.655 333.878 553.163C323.054 576.775 321.185 603.877 321.948 629.503C322.617 652.089 327.85 710.173 331.251 728.176C331.511 729.558 330.424 730.814 329.021 730.716C320.216 730.074 294.843 733.207 291.591 733.634C278.253 735.389 265.081 738.2 252.055 741.53C219.328 749.89 184.163 770.348 150.802 755.122C142.642 751.398 134.04 756.747 126.959 760.363C101.883 773.162 56.5284 762.431 42.4634 792.17C41.7941 793.589 42.8252 795.235 44.3914 795.241C66.1952 795.365 118.259 796.421 150.553 789.262C150.759 789.215 150.957 789.199 151.169 789.22C212.845 794.54 322.064 806.922 378.687 781.424C379.152 781.215 379.526 780.848 379.754 780.394C394.574 750.97 401.296 718.327 404.854 685.792C407.548 661.162 407.518 636.308 410.153 611.708C412.558 589.245 422.731 566.592 445.487 558.549C458.319 554.013 471.735 550.947 484.01 552.194C495.308 553.338 501.089 562.884 510.145 566.191C517.638 568.927 524.11 569.364 530.68 568.268C544.245 565.998 554.032 563.476 567.174 565.054C569.302 565.31 570.182 567.784 571.639 567.75C588.284 567.386 585.783 571.09 596.137 541.224C607.199 509.304 564.564 485.519 539.918 478.169Z" fill="white" stroke="black" stroke-width="5" stroke-miterlimit="10"/>
<path d="M539.918 478.169C515.371 470.848 489.21 472.229 464.335 477.097C418.479 486.067 355.193 506.655 333.878 553.163C323.054 576.775 321.185 603.877 321.948 629.503C322.617 652.089 327.85 710.173 331.251 728.176C331.511 729.558 330.424 730.814 329.021 730.716C320.216 730.074 294.843 733.207 291.591 733.634C278.253 735.389 265.081 738.2 252.055 741.53C219.328 749.89 184.163 770.348 150.802 755.122C142.642 751.398 134.04 756.747 126.959 760.363C101.883 773.162 56.5284 762.431 42.4634 792.17C41.7941 793.589 42.8252 795.235 44.3914 795.241C66.1952 795.365 118.259 796.421 150.553 789.262C150.759 789.215 150.957 789.199 151.169 789.22C212.845 794.54 322.064 806.922 378.687 781.424C379.152 781.215 379.526 780.848 379.754 780.394C394.574 750.97 401.296 718.327 404.854 685.792C407.548 661.162 407.518 636.308 410.153 611.708C412.558 589.245 422.731 566.592 445.487 558.549C458.319 554.013 471.735 550.947 484.01 552.194C495.308 553.338 501.089 562.884 510.145 566.191C517.638 568.927 524.11 569.364 530.68 568.268C544.245 565.998 554.032 563.476 567.174 565.054C569.302 565.31 570.182 567.784 571.639 567.75C588.284 567.386 585.783 571.09 596.137 541.224C607.199 509.304 564.564 485.519 539.918 478.169Z" stroke="black" stroke-width="5" stroke-miterlimit="10"/>
<path d="M629.235 552.061C606.725 558.369 596.914 529.188 596.914 529.188L577.956 541.498L577.813 569.163C577.813 569.163 591.749 568.409 596.199 575.546" fill="white"/>
<path d="M629.235 552.061C606.725 558.369 596.914 529.188 596.914 529.188L577.956 541.498L577.813 569.163C577.813 569.163 591.749 568.409 596.199 575.546" stroke="black" stroke-width="5" stroke-miterlimit="10"/>
<path d="M629.235 552.061C606.725 558.369 596.914 529.188 596.914 529.188L577.956 541.498L577.813 569.163C577.813 569.163 591.749 568.409 596.199 575.546" stroke="black" stroke-width="5" stroke-miterlimit="10"/>
<path d="M360.687 519.604C360.687 519.604 382.611 565.128 422.961 575.545" stroke="black" stroke-width="5" stroke-miterlimit="10"/>
<path d="M213.913 753.678C213.913 753.678 209.563 781.271 213.913 794.498" stroke="black" stroke-width="5" stroke-miterlimit="10"/>
<path d="M634.705 553.151C644.558 555.362 648.162 564.271 657.44 570.378C672.168 580.08 670.661 607.33 656.621 621.162C638.083 639.421 568.399 578.091 577.311 565.86C582.59 558.621 599.065 551.617 617.963 552.785C624.039 553.158 634.705 553.151 634.705 553.151Z" fill="white" stroke="black" stroke-width="5" stroke-miterlimit="10"/>
<path d="M634.705 553.151C644.558 555.362 648.162 564.271 657.44 570.378C672.168 580.08 670.661 607.33 656.621 621.162C638.083 639.421 568.399 578.091 577.311 565.86C582.59 558.621 599.065 551.617 617.963 552.785C624.039 553.158 634.705 553.151 634.705 553.151Z" stroke="black" stroke-width="5" stroke-miterlimit="10"/>
<path d="M641.294 621.952C629.447 610.774 615.649 582.12 633.341 570.567C653.224 557.575 636.743 555.291 632.326 553.724C627.907 552.151 614.346 554.937 614.969 552.412C615.598 549.888 645.596 534.29 665.093 547.743C684.592 561.2 689.813 573.645 686.995 587.524C684.172 601.404 668.109 620.971 654.388 624.931C640.672 628.891 641.294 621.952 641.294 621.952Z" fill="black" stroke="black" stroke-width="5" stroke-miterlimit="10"/>
<path d="M679.316 586.635C685.243 577.08 705.695 559.309 718.457 586.818C728.938 609.414 736.092 601.169 751.963 614.719C764.72 625.609 756.934 648.326 722.876 652.774C691.878 656.822 694.819 637.754 693.585 617.288C692.354 596.833 679.316 586.635 679.316 586.635Z" fill="black" stroke="black" stroke-width="5" stroke-miterlimit="10"/>
<path d="M541.187 578.531C541.187 578.531 556.952 650.205 558.197 684.846C559.857 730.935 567.499 766.711 572.604 786.36C573.884 791.297 578.56 792.166 583.163 793.587C586.823 794.721 589.885 794.92 591.956 794.945L660.107 795.21C661.262 795.224 661.667 793.679 660.65 793.136C651.422 788.213 634.089 785.06 626.779 782.338C620.97 780.172 616.225 778.789 610.104 777.786C608.687 777.551 606.005 777.174 604.577 777.102L604.524 777.097C599.965 776.851 594.705 773.229 592.869 769.05C590.407 763.427 591.567 759.984 591.646 753.855C591.748 746.683 591.839 739.505 591.934 732.33C592.129 717.648 592.326 702.964 592.52 688.284C592.574 684.324 592.624 680.363 592.678 676.403L584.582 529.738C581.058 514.832 569.336 508.514 558.384 510.194C547.431 511.882 518.667 513.779 527.13 548.035C533.796 575.021 541.187 578.531 541.187 578.531Z" fill="white" stroke="black" stroke-width="5" stroke-miterlimit="10"/>
<path d="M541.187 578.531C541.187 578.531 556.952 650.205 558.197 684.846C559.857 730.935 567.499 766.711 572.604 786.36C573.884 791.297 578.56 792.166 583.163 793.587C586.823 794.721 589.885 794.92 591.956 794.945L660.107 795.21C661.262 795.224 661.667 793.679 660.65 793.136C651.422 788.213 634.089 785.06 626.779 782.338C620.97 780.172 616.225 778.789 610.104 777.786C608.687 777.551 606.005 777.174 604.577 777.102L604.524 777.097C599.965 776.851 594.705 773.229 592.869 769.05C590.407 763.427 591.567 759.984 591.646 753.855C591.748 746.683 591.839 739.505 591.934 732.33C592.129 717.648 592.326 702.964 592.52 688.284C592.574 684.324 592.624 680.363 592.678 676.403L584.582 529.738C581.058 514.832 569.336 508.514 558.384 510.194C547.431 511.882 518.667 513.779 527.13 548.035C533.796 575.021 541.187 578.531 541.187 578.531Z" stroke="black" stroke-width="5" stroke-miterlimit="10"/>
</g>
<defs>
<clipPath id="clip0_298_12123">
<rect width="800" height="800" fill="white"/>
</clipPath>
</defs>
</svg>
